src/pos-icons/beer.svg

<svg height="24" viewBox="0 0 24 24" width="24" xmlns="http://www.w3.org/2000/svg"><path d="m4 2h15l-2 20h-11zm2.2 2 1.6 16h1l-1.37-13.66c1.07-.34 2.46-.45 3.57.66 1.56 1.56 4.33.69 5.5.23l.3-3.23z"/></svg>

<?xml version="1.0" encoding="UTF-8"?><!DOCTYPE svg PUBLIC "-//W3C//DTD SVG 1.1//EN" "http://www.w3.org/Graphics/SVG/1.1/DTD/svg11.dtd"><svg xmlns="http://www.w3.org/2000/svg" xmlns:xlink="http://www.w3.org/1999/xlink" version="1.1" id="mdi-beer" width="24" height="24" viewBox="0 0 24 24"><path d="M4,2H19L17,22H6L4,2M6.2,4L7.8,20H8.8L7.43,6.34C8.5,6 9.89,5.89 11,7C12.56,8.56 15.33,7.69 16.5,7.23L16.8,4H6.2Z" /></svg>
